img/list-marker-4@35px.svg

<?xml version="1.0" encoding="UTF-8"?>
<svg width="24px" height="24px" viewBox="0 0 24 24" version="1.1" xmlns="http://www.w3.org/2000/svg" xmlns:xlink="http://www.w3.org/1999/xlink">
    <!-- Generator: Sketch 64 (93537) - https://sketch.com -->
    <title>list-marker-4@35px</title>
    <desc>Created with Sketch.</desc>
    <g id="list-marker-4@35px" stroke="none" stroke-width="1" fill="none" fill-rule="evenodd">
        <path d="M12,4 C16.418278,4 20,7.581722 20,12 C20,16.418278 16.418278,20 12,20 C7.581722,20 4,16.418278 4,12 C4,7.581722 7.581722,4 12,4 Z M13.2421818,8.72727273 L12.2734545,8.72727273 L9.45454545,12.7941818 L9.45454545,13.5272727 L12.0029091,13.5272727 L12.0029091,15.0196364 L13.2421818,15.0196364 L13.2421818,13.5272727 L14.2021818,13.5272727 L14.2021818,12.6196364 L13.2421818,12.6196364 L13.2421818,8.72727273 Z M12.0029091,9.66109091 L12.0029091,12.6196364 L9.94327273,12.6196364 L12.0029091,9.66109091 Z" id="Combined-Shape" fill="#89ABA8"></path>
    </g>
</svg>

<svg width="24" height="24" xmlns="http://www.w3.org/2000/svg"><path d="M12 4a8 8 0 110 16 8 8 0 010-16zm1.242 4.727h-.969l-2.818 4.067v.733h2.548v1.493h1.24v-1.493h.96v-.907h-.96V8.727zm-1.24.934v2.959H9.944l2.06-2.959z" fill="#89ABA8" fill-rule="evenodd"/></svg>
